X: 1
T: Devlin's Jig
O: trad
R: jig
Z: 2008 John Chambers <jc:trillian.mit.edu>
M: 6/8
L: 1/8
K: Bm
Bc \
| "Bm"d2B BAB | F2B B2c | dcd "E7"Bed | "A"c2A ABc \
| "D"dcd "A"ede | "Bm"fbb "(D)"afe | "G"dcB "A"AFE | "Bm"FBB B :|
|: df \
| "D"a3 f3 | "A"ecA A2A | EAA cAA | "F#m"ece f2e \
| "Bm"dBB BAB | FBB Bcd | "Em"efg "F#m"fge | "Bm"dBB B :|
